X:427
%%etbk:tnset id:128,pos:2,rep:3x,ant:
%%etbk:wsite http://www.thesession.org/tunes/display/10422
%%etbk:pldat 2014-05-06T16:42,2014-03-27T17:55,2014-02-25T19:21,2013-11-27T18:24,2013-10-24T19:08,2013-10-23T19:03,2013-08-28T17:06,2013-05-22T17:48
T: Bushmills Fancy
Z: Piano Box Version by Martin Fleischmann
H: Created 2013-02-19 /  Last Modified 2013-02-19
M: 4/4
L: 1/8
R: hornpipe
K: Gmaj
!5!BA |: "G"!3!G!2!F!1!D!2!B, "C"!3!C2!2!B,!3!C | "D"!1!DE !3!(3FED "G"!3!G!1!G !2!B!3!c | !1!d2 !4!gg !3!f!1!d!3!c!1!A | "D"!4!d!2!B!3!c!1!A !2!B!1!G!4!A!2!F |
"G"!3!GF!1!D!2!B, "C"!3!C2 !2!B,C | "D"!1!DE !3!(3FED "G"!3!G!1!G !2!B!3!c | !1!d2 !4!gg !3!f!1!d!3!c!1!A |1 "D"!4!d!3!c!1!A!2!F "G"!3!G2 !5!BA:|2 "D"!4!d!3!c!1!A!2!F "G"!3!G2 !1!B!2!c||
|: "G"!3!d2!5!g!4!e !3!d!2!B!1!G2 | "C"!3!c!1!E!3!c!5!e "D"!2!A!1!G !2!(3EFG | !1!D2 !2!(3EF!4!G !2!AB!4!c!1!A | !3!d!4!e!3!f!1!d !5!afdf |
"G"!4!g2fg "D"!5!afdf | "G"!4!gfga "D"!3!f!1!dd!3!c | !1!AB!4!dc dc!1!A!2!F |1 "G"!3!G2GF G2 !1!B!2!c:|2 "G"!3!G2GF G2 !5!BA||


